!!!COM: Palestrina, Giovanni Perluigi da
!!!OPR: Ave regina coelorum
!!!OTL: Agnus II
**kern	**kern	**kern	**kern	**kern
*Ibass	*Itenor	*Icalto	*Icalto	*Icant
!Bassus	!Tenor	!Altus 2	!Altus 1	!Cantus
*clefF4	*clefGv2	*clefG2	*clefG2	*clefG2
*k[]	*k[]	*k[]	*k[]	*k[]
*C:ion	*C:ion	*C:ion	*C:ion	*C:ion
*M4/2	*M4/2	*M4/2	*M4/2	*M4/2
=1	=1	=1	=1	=1
0r	0r	0r	0g	0r
=2	=2	=2	=2	=2
0r	0r	0r	1f	0cc
.	.	.	2e	.
.	.	.	2f	.
=3	=3	=3	=3	=3
0r	0r	0r	2d	1b
.	.	.	1g	.
.	.	.	.	1a
.	.	.	2f#	.
=4	=4	=4	=4	=4
0G	0r	0r	2g	1b
.	.	.	4G	.
.	.	.	4A	.
.	.	.	4B	1g
.	.	.	4c	.
.	.	.	4d	.
.	.	.	4e	.
=5	=5	=5	=5	=5
1F	0c	0r	4f	2.a
.	.	.	4g	.
.	.	.	4a	.
.	.	.	4f	4b
2E	.	.	2g	1cc
2F	.	.	[2a	.
=6	=6	=6	=6	=6
0D	1B	0r	2a]	0dd
.	.	.	1g	.
.	1A	.	.	.
.	.	.	2f	.
=7	=7	=7	=7	=7
2.G	1B	0g	2e	2r
.	.	.	2d	2.b
4F	.	.	.	.
1E	1G	.	1e	.
.	.	.	.	4a
.	.	.	.	4b
.	.	.	.	4cc
=8	=8	=8	=8	=8
1D	2.A	1f	2r	1dd
.	.	.	1a	.
.	4B	.	.	.
1C	1c	1e	.	1ee
.	.	.	2g	.
=9	=9	=9	=9	=9
1F	2A	1f	1a	1cc
.	1c	.	.	.
1G	.	1d	[1g	2.gg
.	2B	.	.	.
.	.	.	.	4ff
=10	=10	=10	=10	=10
2C	1c	2.e	1g]	1ee
1c	.	.	.	.
.	.	4f	.	.
.	1r	1g	2r	1dd
2B	.	.	[2g	.
=11	=11	=11	=11	=11
2.c	1r	2e	4g]	1g
.	.	.	4f	.
.	.	1g	1e	.
4B	.	.	.	.
1A	1c	.	.	1a
.	.	2f#	4d	.
.	.	.	4c	.
=12	=12	=12	=12	=12
1G	1d	1g	2B	1b
.	.	.	2G	.
2r	1e	1r	1g	1b
2G	.	.	.	.
=13	=13	=13	=13	=13
4A	1e	1r	1c	1cc
4B	.	.	.	.
4c	.	.	.	.
4A	.	.	.	.
2B	2d	1g	1r	2dd
2c	2e	.	.	2cc
=14	=14	=14	=14	=14
1F	1f	1a	1r	1cc
[1G	2e	1b	2r	1r
.	4d	.	2g	.
.	4c	.	.	.
=15	=15	=15	=15	=15
1G]	0d	1b	1g	0r
2F#	.	2a	2a	.
2G	.	2b	2g	.
=16	=16	=16	=16	=16
1A	2c	1cc	2e	0r
.	2A	.	1f	.
2G	2B	2b	.	.
4F	2c	4a	[2e	.
4E	.	4g	.	.
=17	=17	=17	=17	=17
0F	1A	0a	2e]	0r
.	.	.	4d	.
.	.	.	4c	.
.	1A	.	1d	.
=18	=18	=18	=18	=18
1E	2B	2g	1e	2r
.	2c	2e	.	2ee
2r	1d	2f	2r	2a
2G	.	2g	2d	2b
=19	=19	=19	=19	=19
1A	0r	1e	1a	2cc
.	.	.	.	2.ee
2c	.	1e	2g	.
.	.	.	.	4dd
2c	.	.	2g	4cc
.	.	.	.	4b
=20	=20	=20	=20	=20
2d	0r	2f	2f	2a
2B	.	2g	2d	1dd
1A	.	1a	1e	.
.	.	.	.	2cc
=21	=21	=21	=21	=21
1D	1d	0r	2f	1dd
.	.	.	2d	.
1r	1c	.	2e	1g
.	.	.	[2g	.
=22	=22	=22	=22	=22
1r	1A	0r	2g]	2a
.	.	.	2f	1cc
2r	1G	.	2e	.
2G	.	.	2d	2b
=23	=23	=23	=23	=23
2A	0r	1a	2c	1cc
2.c	.	.	2e	.
.	.	1g	2d	1dd
8B	.	.	.	.
8A	.	.	.	.
2B	.	.	2g	.
=24	=24	=24	=24	=24
1c	1c	1e	2g	1ee
.	.	.	1cc	.
1G	1d	1d	.	2.gg
.	.	.	2b	.
.	.	.	.	4ff
=25	=25	=25	=25	=25
1C	1e	0r	2.cc	4ee
.	.	.	.	4dd
.	.	.	.	1ee
.	.	.	4b	.
1D	[1f	.	4a	.
.	.	.	4g	.
.	.	.	[2a	[2dd
=26	=26	=26	=26	=26
0r	2f]	1g	2a]	2dd]
.	2e	.	1g	2cc
.	[1d	1a	.	2.dd
.	.	.	2f	.
.	.	.	.	4cc
=27	=27	=27	=27	=27
1G	1d]	1b	2.g	4b
.	.	.	.	4a
.	.	.	.	1g
.	.	.	4f	.
1A	1c	[1cc	4e	.
.	.	.	4d	.
.	.	.	2c	2f
=28	=28	=28	=28	=28
1G	0r	2cc]	2d	2g
.	.	2b	2e	2g
[1F	.	[1a	[1f	2cc
.	.	.	.	[2dd
=29	=29	=29	=29	=29
1F]	1r	1a]	2f]	4dd]
.	.	.	.	4cc
.	.	.	2e	1cc
1G	1d	1g	2d	.
.	.	.	2G	2b
=30	=30	=30	=30	=30
1C	1c	0r	2r	1.ee
.	.	.	2g	.
1r	1A	.	2a	.
.	.	.	[2cc	4dd
.	.	.	.	4cc
=31	=31	=31	=31	=31
2r	1G	1r	2cc]	1dd
2G	.	.	2b	.
2A	1c	1a	2cc	4cc
.	.	.	.	4dd
[2c	.	.	2cc	4ee
.	.	.	.	4ff
=32	=32	=32	=32	=32
4c]	1d	1g	2r	0gg
8B	.	.	.	.
8A	.	.	.	.
2B	.	.	2g	.
2c	1e	1e	2g	.
2C	.	.	[2cc	.
=33	=33	=33	=33	=33
1D	1f	1d	2cc]	2r
.	.	.	2b	2dd
1C	1e	1g	2cc	2ee
.	.	.	2c	[2gg
=34	=34	=34	=34	=34
1r	0d	1a	2r	2gg]
.	.	.	2d	2ff#
1G	.	1b	2G	2.gg
.	.	.	[2g	.
.	.	.	.	4ff
=35	=35	=35	=35	=35
1A	2c	1cc	2g]	2ee
.	2c	.	2f#	2cc
1G	2d	1b	1g	2r
.	2e	.	.	2g
=36	=36	=36	=36	=36
1F	1f	0a	2c	2a
.	.	.	2.A	2cc
2.A	[1e	.	.	2cc
.	.	.	4B	.
.	.	.	4c	[2ee
4B	.	.	4d	.
=37	=37	=37	=37	=37
1c	1e]	[0g	4e	4ee]
.	.	.	4f	4dd
.	.	.	2.g	1cc
1G	1d	.	.	.
.	.	.	4f	.
.	.	.	2d	2b
=38	=38	=38	=38	=38
0C	0c	0g]	0e	0cc
==	==	==	==	==
*-	*-	*-	*-	*-
!!!CDT: 1525/^1526/-1594/2/2
!!!OCY: Italia
!!!AGN: Mass (Paraphrase)
!!!AST: renaissance, vocal
!!!ASW: Antiphon
!!!PWK: Masses, Book 9
!!!RNB: Cadence finals: G
!!!YOR: Le Opere Complete, v. 25, p. 1
!!!YOO: Rome, Italy: Fratelli Scalera
!!!END: 1992//
!!!EED: John Miller
!!!YEC: Copyright 2000, John Miller
!!!YEN: United States of America
!!!YEM: Rights to all derivative electronic formats reserved.
!!!YEM: Refer to licensing agreement for further details.
!!!YEM: This file must be accompanied by the licensing agreement.
!!!YEM: A copy of the licensing agreement may be found at http://www.music-cog.ohio-state.edu/HumdrumDatabases/Palestrina/license.txt
!!!EMD: converted to Humdrum by Bret Aarden
